papirus/22x22/apps/smartgit.svg

<svg height="22" width="22" xmlns="http://www.w3.org/2000/svg"><path d="m21 11a10 10 0 0 1 -10 10 10 10 0 0 1 -10-10 10 10 0 0 1  10-10 10 10 0 0 1  10 10z" fill="#4d4d4d"/><path d="m15.780191 6.001505c-.307725-.01443-1.17515.052585-2.53035.999-1.45165-.43942-3.00895-.5073-4.7501001 0-1.35605-.9464-2.04835-1.0126-2.3565-.998-.10271.00485-.15235.02051-.15235.02051-.51535 1.3421-.18941 2.3343-.0918 2.58095-.6054.6812-.9756 1.5518-.9756 2.6161 0 3.7365 2.21015 4.5731 4.3116501 4.81915-.2701701.243635-.5146001.6749-.6006001 1.30465-.53915.24962-1.91075.6794-2.75495-.8105 0 0-.49931-.937-1.44925-1.0058 0-.000001-.92375-.01185-.064455.59275 0 0 .6203.30012 1.0508 1.4267 0 0 .55505 1.8966 3.1876 1.30755.0041.7172.0092 1.1803.01074 1.46185.6210501.120675 1.2521501.182145 1.8848001.183585.9519-.0019 1.89865-.139665 2.8116-.409165.0025-.453605.0088-1.1547.0088-2.25285 0-.9093-.30133-1.5045-.64065-1.8056 2.1079-.24124 4.3204-1.0662 4.3204-4.8123 0-1.0643-.367085-1.9349-.97365-2.6161.09703-.246625.42276-1.23885-.09375-2.58095 0 0-.04977-.016675-.15235-.021485z" opacity=".2"/><path d="m15.780191 5.501505c-.307725-.01443-1.17515.052585-2.53035.999-1.45165-.43942-3.00895-.5073-4.7501001 0-1.35605-.9464-2.04835-1.0126-2.3565-.998-.10271.00485-.15235.02051-.15235.02051-.51535 1.3421-.18941 2.3343-.0918 2.58095-.6054.6812-.9756 1.5518-.9756 2.6161 0 3.7365 2.21015 4.5731 4.3116501 4.81915-.2701701.243635-.5146001.6749-.6006001 1.30465-.53915.24962-1.91075.6794-2.75495-.8105 0 0-.49931-.937-1.44925-1.0058 0-.000001-.92375-.01185-.064455.59275 0 0 .6203.30012 1.0508 1.4267 0 0 .55505 1.8966 3.1876 1.30755.0041.7172.0092 1.1803.01074 1.46185.6210501.120675 1.2521501.182145 1.8848001.183585.9519-.0019 1.89865-.139665 2.8116-.409165.0025-.453605.0088-1.1547.0088-2.25285 0-.9093-.30133-1.5045-.64065-1.8056 2.1079-.24124 4.3204-1.0662 4.3204-4.8123 0-1.0643-.367085-1.9349-.97365-2.6161.09703-.246625.42276-1.23885-.09375-2.58095 0 0-.04977-.016675-.15235-.021485z" fill="#fff"/><path d="m11 1c-5.5395 0-9.999 4.46-9.999 10 0 .08386-.002.166645 0 .25.1321-5.423 4.5435-9.75 9.999-9.75 5.4555 0 9.867 4.3268 9.999 9.75.002-.08335 0-.16614 0-.25 0-5.54-4.4595-10-9.999-10z" fill="#fff" opacity=".1"/><path d="m20.9895 10.709a10 10 0 0 1 -9.9895 9.791 10 10 0 0 1 -9.989-9.709 10 10 0 0 0 -.011.209 10 10 0 0 0  10 10 10 10 0 0 0  10-10 10 10 0 0 0 -.0105-.291z" opacity=".3"/></svg>

<?xml version="1.0" encoding="UTF-8" standalone="no"?>
<!-- Created with Inkscape (http://www.inkscape.org/) -->

<svg
   xmlns:dc="http://purl.org/dc/elements/1.1/"
   xmlns:cc="http://creativecommons.org/ns#"
   xmlns:rdf="http://www.w3.org/1999/02/22-rdf-syntax-ns#"
   xmlns:svg="http://www.w3.org/2000/svg"
   xmlns="http://www.w3.org/2000/svg"
   xmlns:sodipodi="http://sodipodi.sourceforge.net/DTD/sodipodi-0.dtd"
   xmlns:inkscape="http://www.inkscape.org/namespaces/inkscape"
   id="svg2817"
   height="22"
   width="22"
   version="1.0"
   inkscape:version="0.91 r13725"
   sodipodi:docname="smartgit.svg">
  <defs
     id="defs11" />
  <sodipodi:namedview
     pagecolor="#ffffff"
     bordercolor="#666666"
     borderopacity="1"
     objecttolerance="10"
     gridtolerance="10"
     guidetolerance="10"
     inkscape:pageopacity="0"
     inkscape:pageshadow="2"
     inkscape:window-width="1600"
     inkscape:window-height="849"
     id="namedview9"
     showgrid="false"
     inkscape:zoom="11.420324"
     inkscape:cx="-21.738417"
     inkscape:cy="7.3048223"
     inkscape:window-x="0"
     inkscape:window-y="0"
     inkscape:window-maximized="1"
     inkscape:current-layer="svg2817" />
  <metadata
     id="metadata57">
    <rdf:RDF>
      <cc:Work
         rdf:about="">
        <dc:format>image/svg+xml</dc:format>
        <dc:type
           rdf:resource="http://purl.org/dc/dcmitype/StillImage" />
        <dc:title />
      </cc:Work>
    </rdf:RDF>
  </metadata>
  <path
     style="fill:#4d4d4d"
     inkscape:connector-curvature="0"
     id="path4207"
     d="M 21,11 A 10,10 0 0 1 11,21 10,10 0 0 1 1,11 10,10 0 0 1 11,1 10,10 0 0 1 21,11 Z" />
  <path
     d="m 15.780191,6.001505 c -0.307725,-0.01443 -1.17515,0.052585 -2.53035,0.999 -1.45165,-0.43942 -3.00895,-0.5073 -4.7501001,0 -1.35605,-0.9464 -2.04835,-1.0126 -2.3565,-0.998 -0.10271,0.00485 -0.15235,0.02051 -0.15235,0.02051 -0.51535,1.3421 -0.18941,2.3343 -0.0918,2.58095 -0.6054,0.6812 -0.9756,1.5518 -0.9756,2.6161 0,3.7365 2.21015,4.5731 4.3116501,4.81915 -0.2701701,0.243635 -0.5146001,0.6749 -0.6006001,1.30465 -0.53915,0.24962 -1.91075,0.6794 -2.75495,-0.8105 0,0 -0.49931,-0.937 -1.44925,-1.0058 0,-10e-7 -0.92375,-0.01185 -0.064455,0.59275 0,0 0.6203,0.30012 1.0508,1.4267 0,0 0.55505,1.8966 3.1876,1.30755 0.0041,0.7172 0.0092,1.1803 0.01074,1.46185 C 9.236076,20.43709 9.867176,20.49856 10.499826,20.5 c 0.9519,-0.0019 1.89865,-0.139665 2.8116,-0.409165 0.0025,-0.453605 0.0088,-1.1547 0.0088,-2.25285 0,-0.9093 -0.30133,-1.5045 -0.64065,-1.8056 2.1079,-0.24124 4.3204,-1.0662 4.3204,-4.8123 0,-1.0643 -0.367085,-1.9349 -0.97365,-2.6161 0.09703,-0.246625 0.42276,-1.23885 -0.09375,-2.58095 0,0 -0.04977,-0.016675 -0.15235,-0.021485 z"
     id="path4151"
     inkscape:connector-curvature="0"
     style="opacity:0.2;fill:#000000;fill-opacity:1" />
  <path
     style="fill:#ffffff"
     inkscape:connector-curvature="0"
     id="rect4203"
     d="m 15.780191,5.501505 c -0.307725,-0.01443 -1.17515,0.052585 -2.53035,0.999 -1.45165,-0.43942 -3.00895,-0.5073 -4.7501001,0 -1.35605,-0.9464 -2.04835,-1.0126 -2.3565,-0.998 -0.10271,0.00485 -0.15235,0.02051 -0.15235,0.02051 -0.51535,1.3421 -0.18941,2.3343 -0.0918,2.58095 -0.6054,0.6812 -0.9756,1.5518 -0.9756,2.6161 0,3.7365 2.21015,4.5731 4.3116501,4.81915 -0.2701701,0.243635 -0.5146001,0.6749 -0.6006001,1.30465 -0.53915,0.24962 -1.91075,0.6794 -2.75495,-0.8105 0,0 -0.49931,-0.937 -1.44925,-1.0058 0,-10e-7 -0.92375,-0.01185 -0.064455,0.59275 0,0 0.6203,0.30012 1.0508,1.4267 0,0 0.55505,1.8966 3.1876,1.30755 0.0041,0.7172 0.0092,1.1803 0.01074,1.46185 C 9.236076,19.93709 9.867176,19.99856 10.499826,20 c 0.9519,-0.0019 1.89865,-0.139665 2.8116,-0.409165 0.0025,-0.453605 0.0088,-1.1547 0.0088,-2.25285 0,-0.9093 -0.30133,-1.5045 -0.64065,-1.8056 2.1079,-0.24124 4.3204,-1.0662 4.3204,-4.8123 0,-1.0643 -0.367085,-1.9349 -0.97365,-2.6161 0.09703,-0.246625 0.42276,-1.23885 -0.09375,-2.58095 0,0 -0.04977,-0.016675 -0.15235,-0.021485 z" />
  <path
     style="opacity:0.1;fill:#ffffff"
     inkscape:connector-curvature="0"
     id="rect4063"
     d="M 11,1 C 5.4605,1 1.001,5.46 1.001,11 c 0,0.08386 -0.002,0.166645 0,0.25 C 1.1331,5.827 5.5445,1.5 11,1.5 c 5.4555,0 9.867,4.3268 9.999,9.75 0.002,-0.08335 0,-0.16614 0,-0.25 C 20.999,5.46 16.5395,1 11,1 Z" />
  <path
     style="opacity:0.3"
     inkscape:connector-curvature="0"
     id="path4202"
     d="M 20.9895,10.709 A 10,10 0 0 1 11,20.5 10,10 0 0 1 1.011,10.791 10,10 0 0 0 1,11 10,10 0 0 0 11,21 10,10 0 0 0 21,11 10,10 0 0 0 20.9895,10.709 Z" />
</svg>
